X:1

T:Who’ll buy my besoms?

M:3/4

L:1/8

N:”Allegretto”

S:Stanford/Petrie – Complete Collection (1905), No. 855

Z:AK/Fiddler’s Companion

K:G

B2 A>B GE | DG GA B2 | B2 AB GE | DG GF G2 ||

Ad de cA | Ad de c2 | Ad de cA | G>F GA B2 |

B2 A>B GE | DG GA B2 | B2 A>B GE | DG GF G2 ||

